web/themes/quartiers_solidaires/assets/icons/pictures-big.svg

<?xml version="1.0" encoding="UTF-8"?>
<svg width="143px" height="142px" viewBox="0 0 143 142" version="1.1" xmlns="http://www.w3.org/2000/svg" xmlns:xlink="http://www.w3.org/1999/xlink">
    <defs>
        <polygon id="path-1" points="1 142 142 142 142 1 1 1"></polygon>
    </defs>

      <g id="pictures-big" transform="translate(0.000000, -1.000000)">
          <path d="M74.0192888,6.49801399 C74.0192888,5.10692363 72.8913862,3.97902098 71.5002958,3.97902098 C70.1092054,3.97902098 68.9813028,5.10692363 68.9813028,6.49801399 C68.9813028,7.88910434 70.1092054,9.01700699 71.5002958,9.01700699 C72.8913862,9.01700699 74.0192888,7.88910434 74.0192888,6.49801399 Z M77.0192888,6.49801399 C77.0192888,9.54595859 74.5482404,12.017007 71.5002958,12.017007 C68.4523512,12.017007 65.9813028,9.54595859 65.9813028,6.49801399 C65.9813028,3.45006938 68.4523512,0.979020979 71.5002958,0.979020979 C74.5482404,0.979020979 77.0192888,3.45006938 77.0192888,6.49801399 Z" id="Stroke-1" fill="currentColor" fill-rule="nonzero"></path>
          <path d="M74.4923667,6.89068526 L112.40066,38.1473286 C113.039833,38.6743479 113.985219,38.5834294 114.512238,37.9442564 C115.039258,37.3050834 114.948339,36.3596977 114.309166,35.8326784 L76.4008725,4.57603502 C75.7616994,4.0490157 74.8163138,4.13993424 74.2892945,4.77910726 C73.7622751,5.41828027 73.8531937,6.36366595 74.4923667,6.89068526 Z" id="Stroke-3" fill="currentColor" fill-rule="nonzero"></path>
          <path d="M66.6013053,4.57376019 L28.6900535,35.8323756 C28.0508766,36.3593902 27.9599512,37.3047752 28.4869658,37.9439521 C29.0139804,38.583129 29.9593654,38.6740544 30.5985423,38.1470398 L68.509794,6.88842443 C69.1489709,6.3614098 69.2398964,5.41602479 68.7128818,4.77684791 C68.1858671,4.13767103 67.2404821,4.04674556 66.6013053,4.57376019 Z" id="Stroke-5" fill="currentColor" fill-rule="nonzero"></path>
          <path d="M134.999103,139.021078 C137.220418,139.021078 139.020782,137.220713 139.020782,134.999399 L139.020782,42.5112874 C139.020782,40.2899733 137.220418,38.4896091 134.999103,38.4896091 L8.0005021,38.4896091 C5.77918796,38.4896091 3.97882378,40.2899733 3.97882378,42.5112874 L3.97882378,134.999399 C3.97882378,137.220713 5.77918796,139.021078 8.0005021,139.021078 L134.999103,139.021078 Z M134.999103,142.021078 L8.0005021,142.021078 C4.12233371,142.021078 0.978823776,138.877568 0.978823776,134.999399 L0.978823776,42.5112874 C0.978823776,38.633119 4.12233371,35.4896091 8.0005021,35.4896091 L134.999103,35.4896091 C138.877272,35.4896091 142.020782,38.633119 142.020782,42.5112874 L142.020782,134.999399 C142.020782,138.877568 138.877272,142.021078 134.999103,142.021078 Z" id="Stroke-7" fill="currentColor" fill-rule="nonzero"></path>
          <path d="M62.6295175,102.48441 C63.2153039,103.070196 64.1650514,103.070196 64.7508378,102.48441 L93.5910363,73.6442113 L126.416719,106.470849 C127.002497,107.056644 127.952244,107.056658 128.538039,106.47088 C129.123834,105.885102 129.123848,104.935354 128.53807,104.349559 L94.6517274,70.4622308 C94.0659434,69.8764298 93.116184,69.8764229 92.5303916,70.4622154 L63.6901776,99.3024293 L50.4703972,86.0826489 C49.8846108,85.4968625 48.9348633,85.4968625 48.3490769,86.0826489 L14.4617482,119.969978 C13.8759618,120.555764 13.8759618,121.505511 14.4617482,122.091298 C15.0475347,122.677084 15.9972821,122.677084 16.5830686,122.091298 L49.4097371,89.2646294 L62.6295175,102.48441 Z" id="Stroke-9" fill="currentColor" fill-rule="nonzero"></path>
          <path d="M70.0003944,68.7346252 C70.0003944,63.4625838 65.7271071,59.1892965 60.4550657,59.1892965 C55.1830243,59.1892965 50.9097371,63.4625838 50.9097371,68.7346252 C50.9097371,74.0066666 55.1830243,78.2799538 60.4550657,78.2799538 C65.7271071,78.2799538 70.0003944,74.0066666 70.0003944,68.7346252 Z M73.0003944,68.7346252 C73.0003944,75.6635208 67.3839614,81.2799538 60.4550657,81.2799538 C53.5261701,81.2799538 47.9097371,75.6635208 47.9097371,68.7346252 C47.9097371,61.8057295 53.5261701,56.1892965 60.4550657,56.1892965 C67.3839614,56.1892965 73.0003944,61.8057295 73.0003944,68.7346252 Z" id="Stroke-11" fill="currentColor" fill-rule="nonzero"></path>
          <path d="M62.629123,102.484508 L88.6825706,128.537956 C89.268357,129.123742 90.2181045,129.123742 90.8038909,128.537956 C91.3896774,127.95217 91.3896774,127.002422 90.8038909,126.416636 L64.7504434,100.363188 C64.164657,99.7774016 63.2149095,99.7774016 62.629123,100.363188 C62.0433366,100.948975 62.0433366,101.898722 62.629123,102.484508 Z" id="Stroke-13" fill="currentColor" fill-rule="nonzero"></path>
          <mask id="mask-2" fill="white">
              <use xlink:href="#path-1"></use>
          </mask>
          <g id="Clip-16"></g>
          <path d="M15.522014,128.977986 C14.6935869,128.977986 14.022014,128.306413 14.022014,127.477986 L14.022014,50.0334895 C14.022014,49.2050624 14.6935869,48.5334895 15.522014,48.5334895 L127.477,48.5334895 C128.305427,48.5334895 128.977,49.2050624 128.977,50.0334895 L128.977,127.477986 C128.977,128.306413 128.305427,128.977986 127.477,128.977986 L15.522014,128.977986 Z M125.977,125.977986 L125.977,51.5334895 L17.022014,51.5334895 L17.022014,125.977986 L125.977,125.977986 Z" id="Stroke-15" fill="currentColor" fill-rule="nonzero" mask="url(#mask-2)"></path>
      </g>

</svg>

<svg viewBox="0 0 143 142" xmlns="http://www.w3.org/2000/svg" xmlns:xlink="http://www.w3.org/1999/xlink">
  <defs>
    <path id="a" d="M1 142h141V1H1z"/>
  </defs>
  <g transform="translate(0 -1)">
    <path d="M74.02 6.498a2.52 2.52 0 1 0-5.039 0 2.52 2.52 0 0 0 5.038 0zm3 0a5.52 5.52 0 1 1-11.039 0 5.52 5.52 0 0 1 11.038 0z" fill="currentColor"/>
    <path d="M74.492 6.89l37.909 31.257a1.5 1.5 0 0 0 1.908-2.314L76.401 4.576a1.5 1.5 0 1 0-1.909 2.315zM66.601 4.574l-37.91 31.258a1.5 1.5 0 1 0 1.908 2.315l37.91-31.259a1.5 1.5 0 1 0-1.908-2.314z" fill="currentColor"/>
    <path d="M135 139.021c2.22 0 4.02-1.8 4.02-4.022V42.511c0-2.221-1.8-4.021-4.02-4.021H8A4.021 4.021 0 0 0 3.98 42.51V135c0 2.222 1.8 4.022 4.022 4.022h126.998zm0 3H8A7.021 7.021 0 0 1 .98 135V42.511A7.021 7.021 0 0 1 8 35.49h126.998a7.021 7.021 0 0 1 7.022 7.021V135a7.021 7.021 0 0 1-7.022 7.022z" fill="currentColor"/>
    <path d="M62.63 102.484a1.5 1.5 0 0 0 2.12 0l28.841-28.84 32.826 32.827a1.5 1.5 0 1 0 2.121-2.121L94.652 70.462a1.5 1.5 0 0 0-2.122 0l-28.84 28.84-13.22-13.22a1.5 1.5 0 0 0-2.12 0L14.461 119.97a1.5 1.5 0 1 0 2.121 2.121L49.41 89.265l13.22 13.22z" fill="currentColor"/>
    <path d="M70 68.735a9.545 9.545 0 0 0-9.545-9.546 9.545 9.545 0 0 0-9.545 9.546 9.545 9.545 0 0 0 9.545 9.545A9.545 9.545 0 0 0 70 68.735zm3 0c0 6.929-5.616 12.545-12.545 12.545S47.91 75.664 47.91 68.735c0-6.93 5.616-12.546 12.545-12.546S73 61.806 73 68.735zM62.63 102.485l26.053 26.053a1.5 1.5 0 0 0 2.12-2.121L64.75 100.363a1.5 1.5 0 0 0-2.12 2.122z" fill="currentColor"/>
    <mask id="b" fill="#fff">
      <use xlink:href="#a"/>
    </mask>
    <path d="M15.522 128.978a1.5 1.5 0 0 1-1.5-1.5V50.033a1.5 1.5 0 0 1 1.5-1.5h111.955a1.5 1.5 0 0 1 1.5 1.5v77.445a1.5 1.5 0 0 1-1.5 1.5H15.522zm110.455-3V51.533H17.022v74.445h108.955z" fill="currentColor" mask="url(#b)"/>
  </g>
</svg>
